X: 772
T: the Absent-Minded Woman   #2
R: reel
%S: s:2 b:12(6+6)
O: Ireland
B: Francis O'Neill: "The Dance Music of Ireland" (1907) #772
%%slurgraces 1
%%graceslurs 1
Z: Frank Nordberg - http://www.musicaviva.com
F: http://www.musicaviva.com/abc/tunes/ireland/oneill-1001/0772/oneill-1001-0772-1.abc
N: Compacted via repeats and 2 styles of multiple endings [JC]
M: C|
L: 1/8
K: G
"^A"|:: G2(GA) BGBd |[1 edgd edBA :|[2 (3(efg) (dB) AGEF :|[3 edgd e2(dB) | dega bage | d2(BG) AGED |]
"^B"|:  g2(bg) agbg | g2(bg) aged |[1 g2(bg) agbg | {a}gedB AGED :|[2 bgaf {a}gedB | {d}cABG AGED |]
